X: 40442
T: Tom Moylan's Frolic
R: reel
M: 4/4
K: Dmajor
|:A~d3 eddc|Addf abag|e~d3 edce|Ad=cA GCEG:|
|:ADFA dedBd|~=c2 G2 EFGE|FDFA dfed|cAGE D2 (3EFG:|

